src/moj/assets/images/icon-wysiwyg-ordered-list.svg

<svg xmlns="http://www.w3.org/2000/svg" width="40" height="40"><path d="M15.5 21h14v-2h-14v2zm0 6h14v-2h-14v2zm0-14v2h14v-2h-14zm-5 6h1.8l-1.8 2.1v.9h3v-1h-1.8l1.8-2.1V18h-3v1zm1-3h1v-4h-2v1h1v3zm-1 9h2v.5h-1v1h1v.5h-2v1h3v-4h-3v1z"/></svg>

<svg xmlns="http://www.w3.org/2000/svg" viewBox="0 0 40 40" width="40" height="40"><path d="M15.5,21h14v-2h-14V21z M15.5,27h14v-2h-14V27z M15.5,13v2h14v-2H15.5z M10.5,19h1.8l-1.8,2.1V22h3v-1h-1.8
	l1.8-2.1V18h-3V19z M11.5,16h1v-4h-2v1h1V16z M10.5,25h2v0.5h-1v1h1V27h-2v1h3v-4h-3V25z"/></svg>
